X:1954
T:Minuet
C:Johann Kuhnau 
R:Minuet
Z:Transcribed by Frank Nordberg - http://www.musicaviva.com
F:http://abc.musicaviva.com/tunes/kuhnau-johann/kuhnau-minuet.abc
V:1 Program 1 6 %Harpsichord
V:2 Program 1 6 bass %Harpsichord
M:3/4
L:1/4
Q:1/4=120
K:F
V:1
fcd|A2B|cd/c/ B/A/|G>FF|fcd|A2B|cd/c/ B/A/|G3:|
V:2
z3|F,C,D,|A,,2B,,|C,2F,|z3|F,C,D,|A,,2B,,|C,2C,:|
%
V:1
|:G2A|B2c|def/g/|e2f|gcd|=B>Bc|d/c/=B>c|c3|
V:2
|:CB,A,|G,2A,|B,2A,|C,2D,|E,2F,|G,2A,|F,G,G,|C,2C,|
%
V:1
cGA|_B3|AB/A/ G/F/|E/F/ E/D/C|cGA|B>cA|B/A/G>F|F3:|
V:2
z3|G,D,E,|F,2B,|C2B,|A,B,A,|G,G,F,|B,CC,|F,2F,:|
W:
W:
W:  From Musica Viva - http://www.musicaviva.com
W:  the Internet center for free sheet music downloads.
